X:15
T: EINST GIENG ICH IM TANNENWALD HER
N: E0629
O: Europa, Mitteleuropa, Deutschland, Lahngegend
R: Liebes - Lied
M: 6/8
L: 1/16
K: C
C2 | G3GG2A2G2F2 | E4z6
C2 | G3GG2A2G2F2 | E4z6
G2 | c4G2G4G2 | A3AA2A4
A2 | G4GGA2G2F2 | E4z6

@@@ Tune index: 4328
